X: 1
T: From-Olles tolva   (From-Olle's 12th)
T: Polska i G efter From-Olle
R: polska
A: H\"alsingland
Z: id:hn-jp-14
Z: 2021 John Chambers <jc:trillian.mit.edu> chords
F: http://norbeck.nu/abc/s/hnjp0.abc
M: 3/4
L: 1/16
K: G
V: 1 staves=2
% - - - - - - - - - -
z2 |\
d3g b4 b4 | d2Bd c2Ac B2G2 |\
d3g g2b2 b2g2 | {e}d2Bd {d}c2Ac B2G2 ||\
D4 c3B A2G2 | F3E D2C2 B,2A,2 |
G,A,B,C DEFG A2c2 | BAGF G6 :: B2 |\
d2BG DGBd c2B2 | c2AF DFAc B2A2 |\
e4 d3{ed}B c2A2 | G3B AGFE D4 ||
d2BG DGBd c2B2 | c2AF DFAc B2A2 |\
GABc d2e2 f2d2 | g3{a}g fefa g4 ||\
G2AB c2ed cBAG | FGAF "G"G6 :|
% - - - - - - - - - -
V: 2
z2 |\
"G"G3B d4 d4 | B2GB "D7"A2FA "G"G4 |\
"G"G3B B2d2 d2c2 | "G"{c}B2GB "D7"{B}A2FA "G"G4 ||\
"D7"A,4 A3G F2E2 | "D7"D3C B,2A,2 G,2A,2 |
"G"B,A,G,A, B,CDE "D7"F2E2 | DCB,A, "G"[D6G,6] :: [D2-G,2-] |\
"G"[D2G,2]DD G2[B2D2] [d4D4] | "D7"[D2A,2]DD F2A2 [d4D4] |
"C"[c4E4] "G"[B4D4] "D7"[A4D4] | "Em"E2D2 "A7"E2^CC "D7"D4 ||\
"G"[D2G,2]DD G2[B2D2] [d4D4] | "D7"[D2A,2]DD F2A2 [d4D4] |
"Em"EFGA B2c2 "D7"A2c2 | "G"B3B "D7"A2c2 "G"B4 ||\
B,2CD "C"E2GF "(D)"EDCB, | "D7"A,B,CA, "G"[D6B,6] :|
% - - - - - - - - - -
